X:471
T: Gechang hezuohua
N: C2090
O: China,Shanxi Zuoquan
S: I, 279]
N: Han
R: Xiaodiao, Shibazhou]
M: 2/4
L: 1/16
K: G
d3ed2G2 | A6B2 | G3FE2G2 | A8 |
e3ge2d2 | c4B2A2 | d2G4A2 | G6z2 |
G4G2A2 | d4d2A2 | G4A2G2 | F4E2D2 |
A3BA2AG | A4C2B,2 | D6E2 | D8

@@@ Tune index: 7026
